!!!OTL: Die Schnürbruſt.
!!!OTL-incipit: DIE MAID SIE WOLT NEN BUHLEN WERT
!!!ARE: Europa, Mitteleuropa, Deutschland, Nord - Deutschland
!!!SCT: Z0114
!!!TXL: @@DE
!!!YEM: Copyright 1995, estate of Helmut Schaffrath.
**kern	**text
*ICvox	*
*M2/4	*
*k[f#]	*
*G:	*
!LO:TX:a:t=Langsam.	!
!LO:TX:a:t=Nord-Deutſch.	!
{8d	Die
=1	=1
4g	Maid
4b/	ſie
=2	=2
4a	wolt
4dd	'nen
=3	=3
8cc#L	Buh-
8ddJ	.
8eeL	-len
8cc#J	.
=4	=4
4a	wert,
8r}	.
{8b/	die
=5	=5
8cc	Maid
8cc	ſie
8cc	wolt
8cc	'nen
=6	=6
8b	Buhlen
8b	.
8b	wert
8b	und
=7	=7
8aL	ſolt
8bJ	.
8a	ſie
8b/	ihn
=8	=8
8aL	gra-
8bJ	.
8a}	-ben
{8a	wohl
=9	=9
8aL	aus
8bJ	.
8aL	der
8f#J	.
=10	=10
4g	Erd'.
8r}	.
==	==
!!!AGN: Sagen - Lied, Romanze, Tod
!!!ONB: ESAC (Essen Associative Code) Database: ZUCCAL
!!!AMT: simple duple
!!!AIN: vox
!!!EED: Helmut Schaffrath
!!!EEV: 1.0
!!!GTL: I. Ernste Romanzen und Sagen.
!!!URL-scan: https://www.digitale-sammlungen.de/de/view/bsb11160571?page=217
!!!ENC: Anna Maria Matuszewska
!!!EEV: 2025/01/27
*-	*-
